X:118
T: Morgan Rattler
N: O'Farrell's Pocket Companion v.2 (Sky ed. p.67)
N: "Irish"
M: 6/8
R: jig
L: 1/8
Q: 320
K: D
B|: AGF E2E|F/G/AF DED|AGF EFE|B2A Bcd|
AGF EGE| FEF DFA|dfd edc|1 B2A Bcd :|2 B2AB2||
c|d2e fed|c2d ecA|d2d fdB|fed fga|
d2e fed|c2d efg|faf edc|1 B2A B2 :|2 B2A Bcd||
D2d dcd|E2e ede|D2d dcd|B2A Bcd|
D2d dcd|E2e efg|agf edc|B2A Bcd :|
